brandFactory_export/1.Light/Diana_1Light.svg

<?xml version="1.0" encoding="UTF-8"?>
<svg width="24px" height="24px" viewBox="0 0 24 24" version="1.1" xmlns="http://www.w3.org/2000/svg" xmlns:xlink="http://www.w3.org/1999/xlink">
    <title>1.Light/Diana_1Light</title>
    <g id="Symbols" stroke="none" stroke-width="1" fill="none" fill-rule="evenodd">
        <g id="1.Light/Diana_1Light" fill="#5CB615" fill-rule="nonzero">
            <path d="M21.4453782,5.68403361 L18.9344538,5.68403361 L20.0672269,4.56134454 L22.205042,4.58151261 C22.2016807,4.58151261 21.4453782,5.68403361 21.4453782,5.68403361 L21.4453782,5.68403361 Z M11.902521,11.2739496 C11.4016807,10.9344538 10.7058824,10.7663866 9.76134454,10.7462185 C9.57983193,10.7428571 9.05882353,10.7394958 9.06218487,10.7394958 C7.1092437,10.7563025 6.05042017,11.3042017 6.05042017,14.1512605 C6.05042017,17.0319328 7.14285714,17.5932773 9.14285714,17.6201681 L9.36470588,17.6235294 L9.84201681,17.6201681 C12.1848739,17.5798319 12.9781513,16.7193277 12.9781513,14.2084034 C12.9781513,13.2537815 12.8537815,12.5344538 12.5680672,12.0033613 L14.0268908,10.5579832 C14.6756303,11.4453782 15.0151261,12.6487395 15.0151261,14.2084034 C15.0151261,17.8016807 13.3344538,19.5831933 9.88571429,19.6403361 L9.37815126,19.6436975 L9.13613445,19.6403361 C5.6907563,19.5932773 4.01680672,17.794958 4.01680672,14.1512605 C4.01680672,10.5277311 5.6605042,8.74957983 9.04201681,8.71932773 C9.10588235,8.71932773 9.62689076,8.72268908 9.81512605,8.72605042 C11.3411765,8.76302521 12.5042017,9.14285714 13.3546218,9.83865546 L11.902521,11.2739496 L11.902521,11.2739496 Z M11.989916,14.205042 C11.989916,16.302521 11.5260504,16.6084034 9.82857143,16.6386555 L9.37142857,16.6420168 L9.15630252,16.6386555 C7.72773109,16.6184874 7.03865546,16.5042017 7.03865546,14.1478992 C7.03865546,11.8352941 7.65714286,11.7277311 9.06554622,11.7176471 C9.12605042,11.7176471 9.57983193,11.7176471 9.74117647,11.7210084 C10.3798319,11.7378151 10.8571429,11.794958 11.2,11.9697479 L9.37478992,13.7815126 L9.37142857,12.9915966 C9.36806723,12.7226891 9.14957983,12.5042017 8.88067227,12.5042017 L8.87394958,12.5042017 C8.60168067,12.5042017 8.38319328,12.7226891 8.38319328,12.9915966 L8.38319328,12.994958 L8.38655462,14.9647059 L8.38655462,14.9714286 C8.38655462,15.0588235 8.42016807,15.1361345 8.4605042,15.2067227 C8.54789916,15.3579832 8.70588235,15.4487395 8.87731092,15.4521008 L8.88403361,15.4521008 L10.8605042,15.4218487 C11.1327731,15.4184874 11.3478992,15.1966387 11.3478992,14.9243697 C11.3411765,14.6554622 11.1226891,14.4403361 10.8537815,14.4436975 L10.8470588,14.4436975 L10.087395,14.4571429 L11.8084034,12.7495798 C11.9294118,13.1058824 11.989916,13.5663866 11.989916,14.205042 L11.989916,14.205042 Z M18.0369748,14.205042 C18.0369748,17.5428571 16.897479,19.9428571 14.6453782,21.3310924 C12.8067227,22.4672269 10.7327731,22.6252101 9.92941176,22.6386555 C9.76470588,22.6420168 9.57647059,22.6420168 9.38487395,22.6420168 L9.09243697,22.6386555 C8.2789916,22.6285714 6.18823529,22.4773109 4.34957983,21.3310924 C2.11764706,19.9361345 0.988235294,17.5193277 0.988235294,14.1478992 C0.988235294,10.7831933 2.10756303,8.37647059 4.31596639,6.99831933 C6.13445378,5.86218487 8.21176471,5.7210084 9.02184874,5.71764706 L9.21008403,5.71764706 C9.44201681,5.71764706 9.68403361,5.7210084 9.88907563,5.72436975 C10.702521,5.74453782 12.7966387,5.91260504 14.6453782,7.06554622 C14.9546218,7.25714286 15.2369748,7.47226891 15.5058824,7.70420168 L14.0672269,9.12941176 C12.8672269,8.11428571 11.2806723,7.78151261 9.83529412,7.74789916 C9.6302521,7.74453782 9.03865546,7.74117647 9.03865546,7.74117647 C6.29243697,7.76470588 3.02521008,8.89411765 3.02521008,14.1512605 C3.02521008,19.4285714 6.3394958,20.5815126 9.11596639,20.6218487 L9.36470588,20.6252101 L9.89243697,20.6184874 C12.6789916,20.5714286 16,19.4184874 16,14.2084034 C16,12.2151261 15.5092437,10.8168067 14.7495798,9.83865546 L16.1983193,8.4 C17.4151261,9.81512605 18.0369748,11.7579832 18.0369748,14.205042 Z M18.1579832,2.32941176 L19.210084,1.50252101 L19.210084,4.02689076 L18.1579832,5.06890756 L18.1579832,2.32941176 L18.1579832,2.32941176 Z M23.5663866,3.87563025 C23.4823529,3.71428571 23.3142857,3.61680672 23.1327731,3.61344538 L21.0420168,3.58991597 L21.1731092,3.45882353 C21.3647059,3.27058824 21.3647059,2.96134454 21.1764706,2.7697479 L21.1731092,2.76638655 C20.9781513,2.57478992 20.6689076,2.57478992 20.4739496,2.76638655 L20.194958,3.04537815 L20.194958,0.490756303 C20.194958,0.302521008 20.087395,0.131092437 19.9159664,0.0504201681 C19.7445378,-0.0302521008 19.5428571,-0.0100840336 19.394958,0.107563025 L17.3546218,1.70756303 C17.2369748,1.80168067 17.1697479,1.94285714 17.1663866,2.0907563 L17.1663866,6.04705882 L16.1915966,7.01512605 C13.9394958,5.0487395 10.9983193,4.77310924 9.90588235,4.74621849 C9.67058824,4.7394958 9.43529412,4.73613445 9.2,4.73613445 L9.00840336,4.7394958 C7.10252101,4.75630252 1.77635684e-15,5.40504202 1.77635684e-15,14.1512605 C1.77635684e-15,22.9109244 7.16638655,23.5966387 9.07563025,23.6235294 C9.17647059,23.6268908 9.28067227,23.6268908 9.38151261,23.6268908 C9.57983193,23.6268908 9.77478992,23.6235294 9.94621849,23.6235294 C11.7613445,23.589916 19.0218487,22.9142857 19.0218487,14.2117647 C19.0218487,11.1697479 18.1277311,9.11932773 16.887395,7.71428571 L17.9428571,6.66554622 L21.7042017,6.66554622 C21.8689076,6.66554622 22.0201681,6.58487395 22.1109244,6.45042017 L23.5327731,4.37983193 C23.6403361,4.22857143 23.6504202,4.03697479 23.5663866,3.87563025 Z" id="Diana_1Light"></path>
        </g>
    </g>
</svg>

<svg width="24" height="24" viewBox="0 0 24 24" xmlns="http://www.w3.org/2000/svg"><path d="M21.445 5.684h-2.51l1.132-1.123 2.138.02c-.003 0-.76 1.103-.76 1.103zm-9.542 5.59c-.501-.34-1.197-.508-2.142-.528-.181-.003-.702-.007-.699-.007-1.953.017-3.012.565-3.012 3.412 0 2.88 1.093 3.442 3.093 3.47l.222.003.477-.004c2.343-.04 3.136-.9 3.136-3.412 0-.954-.124-1.674-.41-2.205l1.459-1.445c.649.887.988 2.09.988 3.65 0 3.594-1.68 5.375-5.13 5.432l-.507.004-.242-.004c-3.445-.047-5.12-1.845-5.12-5.489 0-3.623 1.645-5.401 5.026-5.432.064 0 .585.004.773.007 1.526.037 2.69.417 3.54 1.113l-1.452 1.435zm.087 2.931c0 2.098-.464 2.403-2.161 2.434l-.458.003-.215-.003c-1.428-.02-2.117-.135-2.117-2.491 0-2.313.618-2.42 2.027-2.43.06 0 .514 0 .675.003.639.017 1.116.074 1.459.249l-1.825 1.812-.004-.79a.493.493 0 00-.49-.488h-.007a.488.488 0 00-.49.488v.003l.003 1.97v.006c0 .088.033.165.074.236a.49.49 0 00.416.245h.007l1.977-.03a.494.494 0 00.487-.498.49.49 0 00-.494-.48h-.007l-.76.013 1.721-1.707c.121.356.182.816.182 1.455zm6.047 0c0 3.338-1.14 5.738-3.392 7.126-1.838 1.136-3.912 1.294-4.716 1.308-.164.003-.353.003-.544.003l-.293-.003c-.813-.01-2.904-.162-4.742-1.308C2.118 19.936.988 17.52.988 14.148c0-3.365 1.12-5.772 3.328-7.15 1.818-1.136 3.896-1.277 4.706-1.28h.188c.232 0 .474.003.68.006.813.02 2.907.189 4.755 1.342.31.191.592.406.86.638L14.068 9.13c-1.2-1.015-2.786-1.347-4.232-1.381-.205-.003-.796-.007-.796-.007-2.747.024-6.014 1.153-6.014 6.41 0 5.278 3.314 6.43 6.091 6.47l.249.004.527-.007c2.787-.047 6.108-1.2 6.108-6.41 0-1.993-.49-3.391-1.25-4.37L16.198 8.4c1.217 1.415 1.839 3.358 1.839 5.805zm.121-11.876l1.052-.826v2.524l-1.052 1.042v-2.74zm5.408 1.547a.496.496 0 00-.433-.263l-2.091-.023.131-.131a.488.488 0 00.003-.69l-.003-.003a.497.497 0 00-.7 0l-.278.28V.49a.496.496 0 00-.8-.383l-2.04 1.6a.505.505 0 00-.189.383v3.956l-.974.968c-2.253-1.966-5.194-2.242-6.286-2.269-.235-.007-.47-.01-.706-.01l-.192.003C7.103 4.756 0 5.405 0 14.151c0 8.76 7.166 9.446 9.076 9.473.1.003.205.003.306.003.198 0 .393-.003.564-.003 1.815-.034 9.076-.71 9.076-9.412 0-3.042-.894-5.093-2.135-6.498l1.056-1.048h3.761c.165 0 .316-.081.407-.216l1.422-2.07a.48.48 0 00.033-.504z" fill="#5CB615" fill-rule="nonzero"/></svg>
